!!!OTL: ES GING WOHL UEBER DIE HAIDE
!!!ARE: Europa, Mitteleuropa, Deutschland
!!!SCT: F0838
!!!YEM: Copyright 1995, estate of Helmut Schaffrath.
**kern
*ICvox
*Ivox
*M6/4
*k[f#]
*G:
{4g
=1
2g
4g
4b
4b
4b
=2
2dd
8dd
8ee
2dd}
{4dd
=3
4ee
4ee
4ee
2ee
4ee
=4
2.gg
2r}
{4gg
=5
2aa
4a
4a
4a
4a
=6
2.b
2ff#}
{4ff#
=7
2ff#
4b
2dd
4b
=8
1dd
4r}
==
!!!AGN: erzaehlendes Volks - Lied, Ballade; Tod
!!!ONB: ESAC (Essen Associative Code) Database: FINK
!!!AMT: compound duple
!!!AIN: vox
!!!EED: Helmut Schaffrath
!!!EEV: 1.0
*-
